ref/3dap5k.sp
SPECT

DESCRIPTOR "Argyll Spectral Power information for 3DAP viewing booth at D50 - Foam reflector, extendedto 355nm by estimate of UV"
ORIGINATOR "Argyll CMS"
CREATED "Tue Apr 9 17:15:32 2002"
KEYWORD "SPECTRAL_BANDS"
SPECTRAL_BANDS "80"
KEYWORD "SPECTRAL_START_NM"
SPECTRAL_START_NM "380.000000"
KEYWORD "SPECTRAL_END_NM"
SPECTRAL_END_NM "750.000000"
KEYWORD "SPECTRAL_NORM"
SPECTRAL_NORM "3945.000"

KEYWORD "SPEC_355"
KEYWORD "SPEC_360"
KEYWORD "SPEC_365"
KEYWORD "SPEC_370"
KEYWORD "SPEC_375"
KEYWORD "SPEC_380"
KEYWORD "SPEC_385"
KEYWORD "SPEC_390"
KEYWORD "SPEC_395"
KEYWORD "SPEC_400"
KEYWORD "SPEC_405"
KEYWORD "SPEC_410"
KEYWORD "SPEC_415"
KEYWORD "SPEC_420"
KEYWORD "SPEC_425"
KEYWORD "SPEC_430"
KEYWORD "SPEC_435"
KEYWORD "SPEC_440"
KEYWORD "SPEC_445"
KEYWORD "SPEC_450"
KEYWORD "SPEC_455"
KEYWORD "SPEC_460"
KEYWORD "SPEC_465"
KEYWORD "SPEC_470"
KEYWORD "SPEC_475"
KEYWORD "SPEC_480"
KEYWORD "SPEC_485"
KEYWORD "SPEC_490"
KEYWORD "SPEC_495"
KEYWORD "SPEC_500"
KEYWORD "SPEC_505"
KEYWORD "SPEC_510"
KEYWORD "SPEC_515"
KEYWORD "SPEC_520"
KEYWORD "SPEC_525"
KEYWORD "SPEC_530"
KEYWORD "SPEC_535"
KEYWORD "SPEC_540"
KEYWORD "SPEC_545"
KEYWORD "SPEC_550"
KEYWORD "SPEC_555"
KEYWORD "SPEC_560"
KEYWORD "SPEC_565"
KEYWORD "SPEC_570"
KEYWORD "SPEC_575"
KEYWORD "SPEC_580"
KEYWORD "SPEC_585"
KEYWORD "SPEC_590"
KEYWORD "SPEC_595"
KEYWORD "SPEC_600"
KEYWORD "SPEC_605"
KEYWORD "SPEC_610"
KEYWORD "SPEC_615"
KEYWORD "SPEC_620"
KEYWORD "SPEC_625"
KEYWORD "SPEC_630"
KEYWORD "SPEC_635"
KEYWORD "SPEC_640"
KEYWORD "SPEC_645"
KEYWORD "SPEC_650"
KEYWORD "SPEC_655"
KEYWORD "SPEC_660"
KEYWORD "SPEC_665"
KEYWORD "SPEC_670"
KEYWORD "SPEC_675"
KEYWORD "SPEC_680"
KEYWORD "SPEC_685"
KEYWORD "SPEC_690"
KEYWORD "SPEC_695"
KEYWORD "SPEC_700"
KEYWORD "SPEC_705"
KEYWORD "SPEC_710"
KEYWORD "SPEC_715"
KEYWORD "SPEC_720"
KEYWORD "SPEC_725"
KEYWORD "SPEC_730"
KEYWORD "SPEC_735"
KEYWORD "SPEC_740"
KEYWORD "SPEC_745"
KEYWORD "SPEC_750"
NUMBER_OF_FIELDS 80
BEGIN_DATA_FORMAT
SPEC_355 SPEC_360 SPEC_365 SPEC_370 SPEC_375 SPEC_380 SPEC_385 SPEC_390 SPEC_395 SPEC_400 SPEC_405 SPEC_410 SPEC_415 SPEC_420 SPEC_425 SPEC_430 SPEC_435 SPEC_440 SPEC_445 SPEC_450 SPEC_455 SPEC_460 SPEC_465 SPEC_470 SPEC_475 SPEC_480 SPEC_485 SPEC_490 SPEC_495 SPEC_500 SPEC_505 SPEC_510 SPEC_515 SPEC_520 SPEC_525 SPEC_530 SPEC_535 SPEC_540 SPEC_545 SPEC_550 SPEC_555 SPEC_560 SPEC_565 SPEC_570 SPEC_575 SPEC_580 SPEC_585 SPEC_590 SPEC_595 SPEC_600 SPEC_605 SPEC_610 SPEC_615 SPEC_620 SPEC_625 SPEC_630 SPEC_635 SPEC_640 SPEC_645 SPEC_650 SPEC_655 SPEC_660 SPEC_665 SPEC_670 SPEC_675 SPEC_680 SPEC_685 SPEC_690 SPEC_695 SPEC_700 SPEC_705 SPEC_710 SPEC_715 SPEC_720 SPEC_725 SPEC_730 SPEC_735 SPEC_740 SPEC_745 SPEC_750
END_DATA_FORMAT

NUMBER_OF_SETS 1
BEGIN_DATA
0.0 44.97 103.94 164.9 200.88 269.8301111 310.0680556 414.1321667 586.6544444 1066.693611 1133.624333 1031.633944 972.29 1043.722333 1360.529389 2417.268111 3132.216667 2818.478056 2192.068111 1957.285667 2012.437833 2086.816 2149.097611 2205.945556 2264.570111 2339.1085 2399.303778 2451.353278 2494.1235 2516.631 2534.502167 2543.351444 2565.551778 2603.578944 2647.086278 2702.404611 3045.447667 3626.533111 3944.484778 3524.838667 3082.760333 2947.282889 2987.046333 3115.224611 3264.204778 3254.242611 3106.393611 3101.613167 3069.166278 3050.570056 3084.844278 3103.531722 3083.711278 3053.589722 3031.742722 2965.037333 2901.627444 2814.946667 2731.505611 2628.440667 2523.334611 2418.187556 2309.318778 2191.377056 2074.207278 1952.003389 1830.847556 1709.364111 1586.339889 1466.436333 1359.227167 1251.518111 1158.713556 1056.849167 982.2127778 900.2322778 833.9932222 763.601 692.7145556 643.0055556
END_DATA
