ref/ColorCheckerSG.ti2
CTI3   

DESCRIPTOR "Argyll Calibration Target chart information 3"
ORIGINATOR "Argyll target"
CREATED "Thu Feb 04 12:14:29 2010"
KEYWORD "DEVICE_CLASS"
DEVICE_CLASS "INPUT"
KEYWORD "COLOR_REP"
COLOR_REP "XYZ_RGB"

KEYWORD "STDEV_R"
KEYWORD "STDEV_G"
NUMBER_OF_FIELDS 10
BEGIN_DATA_FORMAT
SAMPLE_ID XYZ_X XYZ_Y XYZ_Z RGB_R RGB_G RGB_B STDEV_R STDEV_G STDEV_B 
END_DATA_FORMAT

NUMBER_OF_SETS 264
BEGIN_DATA
A01 3.8500 3.2200 1.9000 3.0870 1.9150 1.9568 0.18288 0.33530 0.13814 
A02 4.8900 3.2700 1.6000 4.3780 1.1194 1.5620 0.18986 0.21677 0.15053 
A03 5.8700 3.3100 1.3300 7.0969 0.79829 1.4596 0.19608 0.13702 0.21648 
A04 6.3000 3.3800 1.1900 9.3444 0.79154 1.6415 0.24898 0.11159 0.21239 
A05 13.010 11.440 7.6400 14.232 7.8664 9.0240 0.51082 0.34461 0.40609 
A06 16.140 11.990 6.8100 19.112 4.9827 7.4008 0.27379 0.27636 0.24485 
A07 19.350 12.410 6.0600 24.550 2.9139 6.6589 0.44040 0.23921 0.36013 
A08 20.410 11.970 5.3000 28.200 1.9757 5.6575 0.32681 0.17783 0.34406 
A09 43.500 42.810 32.650 50.412 41.562 43.136 0.83769 0.58646 0.66130 
A10 45.580 42.370 30.950 52.491 37.167 40.121 0.65668 0.68089 0.75167 
A11 48.990 43.200 29.900 55.546 34.358 38.456 0.89084 0.72144 0.46689 
A12 50.730 44.020 29.960 59.252 33.923 39.172 0.67792 0.64492 0.71595 
A13 74.460 78.760 66.060 86.999 87.136 83.095 0.84067 0.78370 1.0173 
A14 75.660 76.420 64.080 88.257 85.809 81.940 0.97591 0.87575 0.93144 
A15 78.360 81.340 65.410 89.349 87.424 79.630 0.80575 0.84750 0.90746 
A16 70.520 73.300 59.160 83.248 81.172 76.884 0.59765 0.53177 0.91515 
A17 74.980 75.980 60.690 86.615 83.456 77.766 0.59041 0.64935 0.85237 
A18 72.850 77.300 60.250 85.072 85.370 78.761 0.67171 0.77803 0.78435 
A19 73.090 75.520 64.540 85.077 84.325 81.725 0.60827 0.53488 0.74148 
B01 3.4700 3.0800 1.4100 2.9819 1.8666 1.5474 0.25109 0.26023 0.14749 
B02 4.4100 3.2500 0.90000 3.9091 1.1519 0.44191 0.19422 0.17547 0.17939 
B03 5.0400 3.2300 0.58000 5.7842 0.78053 0.49340 0.39093 0.14767 0.25096 
B04 5.1900 3.1100 0.47000 6.2788 0.70721 0.41772 0.082907 0.18786 0.25207 
B05 13.360 11.590 5.5600 14.926 7.8469 6.2059 0.44744 0.41222 0.43440 
B06 15.970 12.030 3.6900 19.562 5.8030 4.2553 0.47005 0.19252 0.20287 
B07 19.200 12.490 2.2000 25.891 4.1954 2.6920 0.33271 0.22817 0.18918 
B08 19.730 11.520 1.1700 29.809 2.8266 1.9401 0.23472 0.24036 0.14395 
B09 42.190 41.840 29.340 52.125 42.714 40.345 0.71433 0.70374 0.66837 
B10 44.830 42.170 25.930 54.839 39.132 35.238 0.62084 0.61210 0.58037 
B11 48.060 42.900 23.010 60.127 37.706 33.524 0.63887 0.38462 0.62824 
B12 49.630 43.080 21.340 63.922 37.324 32.146 0.65762 0.54522 0.68989 
B13 66.210 72.540 64.610 81.667 84.767 81.706 0.65741 0.59295 0.68550 
B14 70.160 67.100 60.330 84.214 77.614 79.176 0.57243 0.69736 0.83505 
B15 75.460 78.690 51.580 87.872 84.913 72.334 0.64511 0.86763 0.77954 
B16 57.470 59.580 47.660 65.637 62.374 61.374 0.46048 0.54234 0.88766 
B17 68.330 66.450 49.050 80.849 69.402 66.741 0.47062 0.59840 0.78706 
B18 63.890 70.290 51.300 75.219 79.157 68.777 0.46400 0.45401 0.74257 
B19 61.120 62.160 59.790 74.928 72.212 78.002 0.52358 0.56321 0.65812 
C01 4.9700 4.7500 1.9800 3.8530 2.8861 1.9553 0.22700 0.21393 0.14122 
C02 5.1800 4.6500 1.2300 4.3282 2.3874 0.79270 0.23735 0.24096 0.13415 
C03 5.5100 4.5800 0.71000 4.8509 1.9934 0.37347 0.30081 0.24896 0.16563 
C04 5.7700 4.6100 0.67000 5.4652 2.2904 0.39892 0.31940 0.40663 0.17898 
C05 24.570 23.440 10.140 29.971 21.188 14.074 0.87441 0.65043 0.60853 
C06 28.100 24.640 5.2200 35.224 19.484 6.2233 0.47051 0.51996 0.34475 
C07 31.150 25.280 2.2000 43.555 21.569 1.7662 0.53328 0.28476 0.22826 
C08 30.850 23.680 1.3500 47.906 23.705 0.73860 0.48852 0.54401 0.30082 
C09 49.160 49.360 32.370 61.372 52.131 41.915 1.0230 0.96228 0.93947 
C10 51.720 50.720 26.530 66.081 50.197 35.277 0.52582 0.59072 0.68577 
C11 55.240 53.140 21.930 73.019 53.527 32.275 0.44506 0.61523 0.51984 
C12 56.870 53.620 18.460 76.306 55.256 27.858 0.73837 0.62107 0.67223 
C13 57.680 65.650 62.700 69.094 79.718 80.057 0.50745 0.49506 0.65851 
C14 63.460 56.660 55.490 79.979 64.212 75.539 0.48047 0.70668 0.61269 
C15 73.000 76.110 40.780 87.834 83.405 60.764 0.46451 0.49319 0.94645 
C16 44.730 46.380 36.800 49.238 47.428 48.251 0.66946 0.56694 0.71058 
C17 60.640 55.730 38.100 77.490 58.018 53.328 0.50391 0.73108 0.76100 
C18 52.150 60.270 41.500 59.790 70.951 55.734 0.51624 0.54134 0.69219 
C19 48.130 49.180 54.380 55.359 55.873 71.348 0.69989 0.65714 0.84068 
D01 4.1900 4.4100 1.9300 3.1562 3.1899 2.0240 0.14406 0.17903 0.20820 
D02 4.4800 4.7200 1.2400 3.1439 3.1237 0.90907 0.22921 0.19312 0.19845 
D03 4.5500 4.7800 0.80000 3.1884 3.4386 0.76835 0.18973 0.19251 0.14068 
D04 4.3200 4.5300 0.78000 2.7510 3.7222 0.39598 0.089835 0.21097 0.093653 
D05 27.330 28.550 12.950 32.935 30.788 16.103 0.86272 0.76614 1.0290 
D06 28.680 30.040 7.2500 34.121 32.521 9.2587 0.39709 0.61832 0.39734 
D07 29.510 31.010 3.4100 36.086 34.806 2.1211 0.45752 0.42772 0.32549 
D08 27.550 28.440 1.8300 37.395 33.673 0.41712 0.48746 0.39838 0.24261 
D09 56.060 58.190 38.210 68.806 62.355 48.849 0.83407 1.0243 1.0103 
D10 56.030 58.460 30.020 69.259 58.718 33.748 0.64690 0.51168 0.69310 
D11 56.200 59.330 24.440 73.375 62.236 30.616 0.61702 0.52252 0.65243 
D12 56.190 59.410 19.140 77.878 67.860 28.599 0.75670 0.62150 0.58932 
D13 48.210 57.420 59.530 51.811 71.459 76.862 0.52665 0.65682 0.77453 
D14 58.180 49.140 51.360 72.528 46.885 68.418 0.52499 0.49346 0.72705 
D15 70.980 73.730 33.630 87.340 80.456 47.511 0.58420 0.59197 0.74605 
D16 34.310 35.730 28.220 36.385 34.641 36.216 0.65565 0.55419 0.71008 
D17 54.270 47.530 29.580 71.607 44.334 41.932 0.46944 0.43555 0.66646 
D18 41.670 50.640 32.280 40.678 55.829 39.983 0.43992 0.47148 0.62583 
D19 36.950 37.820 48.090 37.649 36.082 58.334 0.42908 0.54659 0.83641 
E01 4.1500 4.7500 2.0300 3.1080 3.5881 2.3054 0.15860 0.18960 0.21718 
E02 4.0000 4.9800 1.3700 2.2371 3.5825 0.94616 0.25476 0.27294 0.19591 
E03 3.3000 4.4900 0.86000 1.6523 4.0563 0.38062 0.19385 0.38560 0.11779 
E04 3.1100 4.3000 0.86000 1.5621 5.4761 0.39158 0.26069 0.52827 0.12416 
E05 13.110 14.900 7.0600 15.304 17.657 10.409 0.47522 0.71252 0.51942 
E06 12.260 15.230 4.1800 12.178 18.905 5.5227 0.25140 0.45664 0.32497 
E07 11.530 15.570 2.2700 11.698 21.930 1.9527 0.26015 0.27007 0.21988 
E08 9.6900 13.740 1.5100 10.276 19.833 0.79976 0.39423 0.37372 0.23614 
E09 39.150 42.080 27.330 45.518 46.666 38.440 0.69913 0.70519 0.71247 
E10 37.430 41.510 22.230 44.807 49.208 32.547 0.55033 0.61108 0.60908 
E11 36.990 42.500 18.850 43.914 51.799 27.847 0.33881 0.53443 0.59872 
E12 36.400 42.580 16.270 43.530 52.579 24.028 0.42317 0.40277 0.79064 
E13 39.970 49.810 56.150 39.429 62.735 72.585 0.51788 0.70956 0.61542 
E14 52.080 41.070 46.360 60.752 30.200 56.615 0.61389 0.53882 0.50726 
E15 68.710 70.760 26.450 86.100 76.861 38.303 0.41619 0.79801 0.68629 
E16 25.700 26.970 21.280 27.203 25.514 27.365 0.37071 0.36979 0.64204 
E17 48.530 40.600 22.000 63.064 33.698 32.716 0.65833 0.49787 0.51247 
E18 31.620 40.820 23.350 33.628 51.020 34.670 0.45510 0.54658 0.59089 
E19 31.190 31.190 43.400 29.013 27.025 51.220 0.47563 0.55117 0.57962 
F01 1.5100 1.9100 1.0600 0.027596 0.75636 0.74985 0.15629 0.19236 0.22766 
F02 1.2900 2.0400 0.98000 4.9390e-004 1.0482 0.39366 0.027695 0.20025 0.047727 
F03 1.1600 2.0900 0.82000 1.2211e-003 1.3702 0.39338 0.055216 0.20402 0.055216 
F04 1.1400 2.0400 0.80000 5.2010e-004 1.8140 0.39216 0.028412 0.19742 8.7191e-017 
F05 6.5300 8.2500 5.1300 6.0620 8.7613 6.3749 0.21856 0.39993 0.34077 
F06 5.6100 8.6600 4.3800 5.0928 12.540 5.5351 0.32257 0.22932 0.31753 
F07 4.6000 8.7700 3.7000 3.9791 14.933 5.5371 0.22839 0.40306 0.31189 
F08 3.4500 7.6300 2.7800 3.1943 13.637 5.0607 0.18371 0.31217 0.28611 
F09 37.800 41.070 30.910 42.311 46.542 44.099 0.66414 0.71461 0.48054 
F10 35.920 40.760 29.030 37.090 45.514 41.038 0.54192 0.47361 0.49637 
F11 35.420 41.990 29.070 33.769 46.586 39.188 0.63863 0.44377 0.74150 
F12 34.000 41.800 28.000 32.661 47.456 39.230 0.38028 0.53728 0.61597 
F13 32.130 42.120 51.990 33.383 57.669 70.984 0.45695 0.68345 0.74883 
F14 45.720 33.340 40.770 54.515 21.176 49.435 0.62848 0.60201 0.59089 
F15 66.260 67.290 19.650 85.509 74.348 30.963 0.34004 0.66164 0.72944 
F16 17.020 18.070 14.400 18.492 17.628 19.716 0.41175 0.41125 0.55653 
F17 41.590 32.530 15.160 55.337 23.031 22.717 0.32869 0.58391 0.55775 
F18 26.260 35.260 18.810 29.664 47.253 28.577 0.65266 0.49301 0.47012 
F19 24.300 23.600 37.480 19.299 17.238 43.015 0.51151 0.45280 0.37522 
G01 2.3100 3.0000 2.2700 0.84520 2.3174 1.9294 0.18283 0.18185 0.16146 
G02 2.0000 3.2100 2.5800 0.75456 2.8979 2.5428 0.15935 0.25240 0.20833 
G03 1.6600 3.2100 2.7500 0.76882 3.1767 2.7895 0.13653 0.18762 0.18509 
G04 1.5800 3.0300 2.6000 0.72753 3.5401 3.1385 0.21153 0.23805 0.12733 
G05 8.9900 11.080 8.7900 8.6417 12.633 13.013 0.23258 0.38272 0.51760 
G06 7.6800 11.300 9.5600 6.0762 14.162 13.630 0.34219 0.48961 0.37830 
G07 6.5200 11.500 10.200 4.7151 15.595 15.675 0.18999 0.25121 0.34355 
G08 5.5000 10.850 10.550 3.9310 15.708 18.487 0.17658 0.18808 0.38867 
G09 38.290 41.750 33.450 41.221 46.682 47.377 0.47434 0.65583 0.69760 
G10 35.830 41.160 34.110 34.960 46.653 48.630 0.43230 0.33577 0.68757 
G11 34.560 41.830 35.630 33.586 49.866 51.379 0.54290 0.54558 0.79591 
G12 33.690 42.140 36.700 33.047 50.497 52.510 0.47475 0.63324 0.64506 
G13 25.950 35.680 48.000 25.821 49.453 66.662 0.37812 0.43551 0.68026 
G14 40.600 27.620 36.140 49.315 12.855 43.923 0.59407 0.51249 0.39980 
G15 63.720 63.630 14.350 85.087 71.090 23.531 0.42910 0.70922 0.51323 
G16 10.850 11.820 9.5800 12.480 12.126 12.956 0.45159 0.26832 0.47760 
G17 37.230 27.640 11.620 47.527 14.544 15.337 0.27575 0.21502 0.45406 
G18 20.280 28.970 14.150 22.086 39.214 21.499 0.22375 0.42080 0.58054 
G19 17.700 16.740 31.700 11.092 8.9799 34.605 0.30961 0.25432 0.34654 
H01 2.5600 3.0400 2.9200 1.0797 1.6510 2.5225 0.19148 0.29249 0.31180 
H02 2.3400 3.2000 4.1200 0.75605 1.9921 3.9184 0.20879 0.18831 0.34399 
H03 2.1200 3.2800 5.4300 1.1188 2.6942 5.7632 0.18331 0.31552 0.43690 
H04 2.0600 3.1800 5.2900 0.95250 3.6569 9.1081 0.19606 0.26991 0.32976 
H05 10.070 11.600 11.240 8.3322 11.376 15.622 0.28376 0.42701 0.40381 
H06 9.0100 11.680 14.810 5.4932 11.765 20.056 0.091608 0.41488 0.57575 
H07 8.2200 12.000 19.420 4.9770 14.064 28.422 0.20715 0.32326 0.42487 
H08 7.2500 11.550 21.450 3.2684 15.675 34.112 0.21933 0.26892 0.44285 
H09 39.250 42.310 36.810 41.417 46.807 52.636 0.40783 0.63180 0.70186 
H10 37.580 41.850 40.370 37.620 47.457 56.394 0.40780 0.38262 0.60753 
H11 37.160 43.070 45.790 35.702 50.905 63.199 0.32421 0.46580 0.63305 
H12 36.270 43.780 49.470 33.495 51.722 65.912 0.49238 0.80083 0.50501 
H13 21.470 30.780 44.220 17.358 41.175 60.322 0.53191 0.33884 0.71172 
H14 36.490 23.350 32.380 42.559 7.4512 37.794 0.63662 0.37435 0.45301 
H15 61.580 60.550 10.950 83.946 67.032 17.125 0.47747 0.68565 0.68924 
H16 8.2100 8.7100 6.9100 7.7370 6.7073 7.1914 0.30311 0.32664 0.38434 
H17 33.040 23.260 8.3800 41.945 9.7770 9.4041 0.36608 0.27977 0.29341 
H18 16.220 24.350 10.410 14.161 31.400 14.036 0.50870 0.42853 0.33315 
H19 12.860 11.840 26.820 6.7641 4.8816 27.846 0.21234 0.35512 0.43660 
I01 4.2200 4.4400 5.2800 2.5804 3.1209 5.5388 0.19793 0.22097 0.23814 
I02 4.3500 4.4800 8.3600 2.1950 2.9540 8.2511 0.21318 0.37273 0.15204 
I03 4.4000 4.4400 11.940 1.5551 2.3277 13.781 0.13059 0.32101 0.44139 
I04 4.4800 4.5800 12.170 1.5183 2.7011 16.873 0.18903 0.18775 0.54146 
I05 15.150 15.780 15.230 14.098 13.280 19.482 0.38631 0.35696 0.61921 
I06 14.560 15.120 19.520 11.398 11.740 26.460 0.39190 0.31696 0.53900 
I07 14.370 14.810 24.480 9.0951 10.558 31.378 0.31653 0.47750 0.40616 
I08 14.110 14.760 30.030 8.8994 12.525 38.791 0.19577 0.41303 0.47520 
I09 41.030 42.580 36.940 44.643 44.074 50.860 0.49120 0.38131 0.77241 
I10 40.850 42.230 40.730 43.872 44.287 55.517 0.47835 0.37431 0.74007 
I11 40.860 42.330 45.050 42.122 43.554 59.117 0.48773 0.61376 0.75436 
I12 41.310 42.730 47.770 40.877 43.038 60.455 0.52027 0.78243 0.89880 
I13 17.260 25.930 40.230 11.385 33.626 53.134 0.24543 0.46746 0.49207 
I14 32.660 19.630 28.810 37.259 3.1300 31.648 0.53636 0.22763 0.56347 
I15 59.370 57.180 7.7900 81.619 61.582 10.428 0.45678 0.75637 0.50761 
I16 4.9700 5.3200 4.3200 4.1247 4.2743 4.4333 0.25062 0.28647 0.22229 
I17 28.620 18.880 5.4800 37.742 6.2496 5.7060 0.30537 0.26137 0.31918 
I18 11.580 18.980 7.2500 10.598 26.684 8.8664 0.26978 0.44054 0.42495 
I19 9.5800 8.3400 22.870 4.2150 3.2891 23.893 0.21095 0.25111 0.44678 
I20 0.45000 0.40000 0.33000 0.39216 0.39216 0.54897 8.7185e-017 8.7185e-017 0.19577 
I21 2.2800 1.7800 0.98000 1.5621 0.40380 0.78485 0.17869 0.12419 0.10123 
I22 2.3700 1.9500 0.85000 1.6757 0.52953 0.77981 0.20785 0.19502 0.097289 
J01 2.1500 1.9000 2.6000 0.80586 0.46230 2.3504 0.14574 0.18600 0.061302 
J02 2.5700 2.0000 4.7200 0.88254 0.50462 3.8319 0.23987 0.27408 0.28547 
J03 2.9300 1.9500 8.1000 1.1741 0.79211 7.0759 0.059711 0.10088 0.41081 
J04 3.1500 1.9200 10.760 1.1579 0.78634 9.8197 0.13923 0.054971 0.30540 
J05 11.730 11.600 11.810 10.434 9.0014 15.080 0.27064 0.18087 0.39725 
J06 12.980 11.930 16.190 9.8203 6.5823 18.989 0.42140 0.31577 0.43052 
J07 13.910 12.070 20.950 9.0486 5.3905 24.287 0.43191 0.32612 0.46685 
J08 14.010 11.590 24.350 9.4663 4.4573 26.676 0.46513 0.26033 0.44412 
J09 40.750 41.220 36.340 46.279 42.745 50.219 0.48484 0.49432 0.71791 
J10 41.260 41.070 39.740 46.208 41.530 53.967 0.39057 0.37860 0.69962 
J11 42.630 41.680 44.510 46.276 39.907 57.241 0.36909 0.43099 0.77240 
J12 44.020 41.780 49.250 46.523 38.842 60.774 0.60050 0.54935 0.80146 
J13 13.820 21.690 35.980 6.4384 27.059 47.284 0.27804 0.44682 0.53798 
J14 28.870 16.330 25.080 33.360 1.4880 26.700 0.54686 0.35986 0.50147 
J15 56.040 52.290 4.9700 79.215 55.635 5.6027 0.36036 0.67586 0.40739 
J16 2.4600 2.6300 2.2900 2.0271 1.9425 2.1126 0.22979 0.25009 0.22276 
J17 24.040 14.750 3.1500 32.513 3.3788 3.9462 0.38941 0.25099 0.22979 
J18 8.1200 14.490 4.5500 6.8312 20.787 5.0280 0.26878 0.48921 0.37476 
J19 5.9800 4.7900 17.760 1.9349 1.4360 18.258 0.25534 0.19476 0.43841 
J20 8.2600 5.3700 1.0400 9.0085 1.2119 1.6117 0.45009 0.24630 0.21888 
J21 11.520 7.8100 1.6200 15.322 3.1307 1.6660 0.28794 0.15307 0.22993 
J22 14.670 10.720 2.6000 19.118 4.7445 3.3211 0.27061 0.23207 0.23572 
K01 5.6300 4.7000 4.8600 3.1669 2.3147 4.3372 0.16578 0.17296 0.16002 
K02 6.7400 4.5800 7.2300 4.7712 1.7242 5.8628 0.19822 0.36800 0.19901 
K03 8.0400 4.4800 9.7300 7.0830 0.83482 8.6422 0.34393 0.17784 0.40049 
K04 9.3900 4.7600 11.790 9.3140 0.83699 11.430 0.19932 0.17903 0.39652 
K05 16.660 15.390 14.440 15.838 10.461 17.251 0.32001 0.40528 0.46694 
K06 18.720 15.180 18.230 18.124 6.6879 21.403 0.40410 0.17228 0.49710 
K07 21.560 15.500 22.970 21.965 5.3109 25.015 0.24740 0.23832 0.38336 
K08 23.000 15.020 25.370 24.105 3.1608 26.801 0.32492 0.16608 0.48978 
K09 42.500 42.020 36.050 47.117 40.740 49.022 0.53629 0.37845 0.70340 
K10 44.550 41.630 39.710 49.817 36.865 51.366 0.65172 0.52763 0.69630 
K11 47.190 41.960 44.030 49.582 31.706 51.769 0.59677 0.49442 0.61865 
K12 49.900 43.140 47.210 49.812 27.011 52.296 0.66045 0.55640 0.61863 
K13 10.610 17.440 31.240 4.4300 21.053 41.922 0.22576 0.30726 0.65920 
K14 24.840 13.190 21.000 29.807 0.40689 21.925 0.51521 0.12873 0.23282 
K15 53.120 48.050 3.1900 76.497 50.546 1.9742 0.42392 0.89083 0.22911 
K16 1.0500 1.1400 1.1300 0.37611 0.38958 0.78350 0.16012 0.11365 0.056938 
K17 19.930 11.340 1.6700 28.212 1.8825 1.9270 0.20132 0.19250 0.18652 
K18 5.3000 10.470 2.7300 4.6984 16.487 2.7171 0.27557 0.20947 0.35113 
K19 3.9500 2.7600 13.940 1.1640 0.78992 13.028 0.14201 0.087689 0.38375 
K20 30.610 26.430 11.040 37.280 17.799 14.056 0.42873 0.33930 0.49948 
K21 34.910 29.600 11.780 46.591 23.876 16.346 0.59613 0.61207 0.58881 
K22 38.950 34.570 18.400 50.441 29.451 25.122 0.41109 0.46425 0.53273 
L01 3.8800 3.1200 2.3200 2.3754 1.1903 2.4650 0.23374 0.24751 0.21411 
L02 4.9300 3.2000 2.6900 3.5670 0.87669 2.4249 0.19064 0.19083 0.21057 
L03 5.7500 3.1400 3.0200 6.2627 0.88805 2.7596 0.15419 0.19237 0.13238 
L04 7.3100 3.7900 3.4000 12.143 0.79340 5.0822 0.36514 0.10735 0.18096 
L05 13.290 11.540 9.3900 13.257 6.7371 11.007 0.53413 0.39748 0.52457 
L06 16.220 11.730 10.320 17.565 4.3606 11.749 0.41329 0.23326 0.22842 
L07 19.950 12.080 12.060 23.621 1.9646 12.957 0.36857 0.073970 0.44540 
L08 20.790 11.310 12.010 27.319 1.1467 14.145 0.39539 0.24605 0.48567 
L09 43.220 42.090 33.780 49.604 40.742 46.106 0.73537 0.46689 0.65281 
L10 45.520 41.880 34.650 52.432 36.546 46.285 0.70127 0.47543 0.81335 
L11 49.040 42.870 35.980 52.918 31.732 45.276 0.56655 0.49649 0.63589 
L12 51.030 43.830 37.780 56.056 30.451 46.847 0.71159 0.54349 0.47579 
L13 7.4500 12.770 25.590 3.1210 15.741 36.868 0.16774 0.41923 0.54315 
L14 21.260 10.760 17.730 25.639 0.67463 17.297 0.33435 0.23099 0.28299 
L15 49.450 43.120 2.1400 71.709 42.401 0.77056 0.63981 0.77745 0.15935 
L16 0.47000 0.49000 0.50000 0.39216 0.39242 0.44227 8.7191e-017 0.020117 0.17760 
L17 16.040 8.4900 0.78000 22.615 0.77695 0.80931 0.41597 0.098510 0.17603 
L18 2.9100 6.5000 1.3900 2.3795 10.578 0.82736 0.41720 0.36726 0.25065 
L19 2.5000 1.4500 10.280 0.87774 0.87456 9.0192 0.19100 0.19050 0.23749 
L20 38.700 33.980 20.860 46.392 26.795 27.748 0.70761 0.62342 0.62702 
L21 39.360 35.230 21.230 49.082 30.312 29.444 0.78808 0.53733 0.63082 
L22 41.360 38.770 23.510 49.490 34.663 31.428 0.65330 0.41753 0.60905 
GS00 79.470 82.510 69.040 94.066 92.950 89.438 0.92099 0.93414 1.0465 
GS01 72.620 74.940 59.170 83.147 81.219 77.715 0.78271 0.68705 0.94766 
GS02 63.150 65.110 51.570 72.917 70.218 68.669 1.6258 1.2707 1.2120 
GS03 54.720 56.510 45.030 62.183 59.826 59.273 1.1706 0.93329 0.94511 
GS04 48.100 49.810 39.240 54.449 52.983 53.093 0.94040 0.74898 0.81106 
GS05 42.220 43.640 34.450 46.328 44.248 45.944 0.67400 0.50032 0.83337 
GS06 37.330 38.700 30.500 38.317 37.642 39.414 0.73797 0.55911 0.80063 
GS07 32.380 33.610 26.110 33.430 32.555 34.311 0.65078 0.68590 0.53545 
GS08 27.560 28.700 22.110 28.329 27.391 29.319 0.58496 0.47730 0.62283 
GS09 22.500 23.400 17.990 24.816 23.504 25.107 0.34653 0.55560 0.46821 
GS10 18.770 19.550 14.830 19.965 19.162 21.933 0.53943 0.57276 0.50639 
GS11 15.480 16.080 12.040 16.404 15.001 17.243 0.45210 0.41568 0.49656 
GS12 12.690 13.290 9.9800 12.196 12.177 13.695 0.44316 0.26670 0.48288 
GS13 10.350 10.810 7.9700 9.2053 9.3069 10.577 0.20471 0.20663 0.38564 
GS14 8.3900 8.7700 6.3700 6.8434 6.6000 6.6948 0.44020 0.30795 0.33660 
GS15 6.4500 6.7900 4.9700 5.0530 5.1099 5.4164 0.19533 0.41922 0.22533 
GS16 4.9500 5.1800 3.7000 3.5418 3.5969 4.0009 0.21349 0.20376 0.24671 
GS17 3.5800 3.8200 2.7600 2.2466 2.3553 2.3640 0.20655 0.13937 0.14287 
GS18 2.7600 2.8900 2.0600 1.1077 1.1790 1.5754 0.28160 0.25904 0.24353 
GS19 1.9700 2.0800 1.4500 0.35943 0.40395 0.79579 0.18424 0.11867 0.11747 
GS20 1.2200 1.3100 0.98000 0.23507 0.31297 0.70239 0.19729 0.21133 0.18880 
GS21 1.0000 1.0500 0.74000 0.38400 0.38523 0.77548 0.10266 0.10537 0.10605 
GS22 0.87000 0.89000 0.65000 0.39216 0.39216 0.74886 8.7126e-017 8.7126e-017 0.16598 
GS23 0.34000 0.32000 0.32000 0.39226 0.39237 0.43006 0.012929 0.018274 0.16840 
END_DATA
