scanin/CMP_Digital_Target-3.ti2
CTI2

DESCRIPTOR "Argyll Calibration Target chart information 2 for Christopher Metarie Digital Target 3"
ORIGINATOR "Argyll printtarg"
CREATED "Wed Sep 12 00:02:26 2007"
KEYWORD "TARGET_INSTRUMENT"
TARGET_INSTRUMENT "GretagMacbeth i1 Pro"
KEYWORD "ACCURATE_EXPECTED_VALUES"
ACCURATE_EXPECTED_VALUES "true"
KEYWORD "COLOR_REP"
COLOR_REP "RGB"
KEYWORD "STEPS_IN_PASS"
STEPS_IN_PASS "30"
KEYWORD "PASSES_IN_STRIPS2"
PASSES_IN_STRIPS2 "19"
KEYWORD "STRIP_INDEX_PATTERN"
STRIP_INDEX_PATTERN "0-9,@-9,@-9;1-999"
KEYWORD "PATCH_INDEX_PATTERN"
PATCH_INDEX_PATTERN "A-Z, 2-9"
KEYWORD "INDEX_ORDER"
INDEX_ORDER "PATCH_THEN_STRIP"

KEYWORD "SAMPLE_LOC"
NUMBER_OF_FIELDS 8
BEGIN_DATA_FORMAT
SAMPLE_ID SAMPLE_LOC RGB_R RGB_G RGB_B XYZ_X XYZ_Y XYZ_Z 
END_DATA_FORMAT

NUMBER_OF_SETS 570
BEGIN_DATA
1 "A1" 106.60 73.896 140.50 19.991 14.120 27.886 
2 "B1" 101.22 157.76 91.298 19.926 34.054 14.005 
3 "C1" 56.474 54.712 116.20 6.2319 5.6339 19.078 
4 "D1" 142.23 143.96 106.67 32.785 35.198 16.672 
5 "E1" 161.58 92.303 143.82 38.996 22.658 25.805 
6 "F1" 90.405 96.497 94.153 16.011 17.612 14.561 
7 "G1" 163.39 98.124 88.178 39.496 24.997 12.003 
8 "H1" 63.278 55.370 115.21 7.4905 6.2468 18.358 
9 "I1" 71.385 133.64 49.363 11.987 23.286 6.5928 
10 "J1" 97.757 75.383 143.28 16.591 12.444 27.331 
11 "K1" 194.49 193.52 200.39 63.038 64.179 58.403 
12 "L1" 43.729 37.037 36.612 4.3513 3.8393 2.7750 
13 "M1" 128.36 143.53 178.51 27.386 30.873 42.527 
14 "N1" 136.71 176.12 173.90 31.789 44.281 40.439 
15 "O1" 190.25 190.03 173.26 59.453 61.985 40.335 
16 "P1" 139.89 69.074 45.054 26.783 15.713 3.5833 
17 "Q1" 34.433 40.188 37.667 3.0238 3.6843 3.0876 
18 "R1" 87.362 153.04 89.833 15.462 28.885 12.776 
19 "S1" 124.79 84.048 151.84 23.694 16.421 29.352 
20 "T1" 201.42 206.76 79.283 65.900 73.381 11.377 
21 "U1" 59.875 104.70 93.370 8.3333 15.036 13.749 
22 "V1" 205.39 208.60 159.63 72.416 77.985 33.423 
23 "W1" 91.572 136.12 167.03 16.393 25.254 38.122 
24 "X1" 30.336 29.306 28.957 2.3144 2.3581 1.9303 
25 "Y1" 132.60 110.17 107.91 27.102 23.276 16.813 
26 "Z1" 32.956 33.215 31.185 2.6994 2.8850 2.2332 
27 "2A1" 70.282 129.32 46.946 10.757 20.588 4.8216 
28 "2B1" 159.00 173.65 202.91 40.765 45.919 58.857 
29 "2C1" 121.19 88.150 161.84 22.864 16.381 33.839 
30 "2D1" 136.59 101.50 125.83 28.289 21.404 20.483 
31 "A2" 75.414 80.525 150.43 10.412 10.567 30.978 
32 "B2" 128.64 63.027 42.872 24.139 14.085 3.5857 
33 "C2" 101.62 116.40 166.26 19.473 21.752 38.376 
34 "D2" 129.62 78.772 146.55 26.280 16.991 28.035 
35 "E2" 164.20 144.75 82.589 42.573 39.671 9.6556 
36 "F2" 96.904 110.83 179.21 17.113 18.705 43.690 
37 "G2" 157.24 84.071 46.359 35.850 22.548 3.8554 
38 "H2" 84.439 70.424 140.26 13.037 10.392 26.425 
39 "I2" 81.661 147.44 58.864 14.946 28.262 8.1825 
40 "J2" 35.433 35.856 32.072 3.1780 3.3914 2.3047 
41 "K2" 150.66 144.08 140.58 35.880 35.178 26.683 
42 "L2" 158.35 93.379 154.74 36.434 22.147 28.386 
43 "M2" 100.38 93.492 99.897 17.689 17.022 15.072 
44 "N2" 158.93 93.968 95.921 36.396 23.022 13.623 
45 "O2" 102.60 137.21 171.09 19.884 26.988 39.544 
46 "P2" 74.932 50.703 44.902 10.294 7.4271 3.4839 
47 "Q2" 115.12 165.78 166.70 24.415 37.008 36.288 
48 "R2" 157.97 92.663 150.58 36.078 21.682 26.898 
49 "S2" 83.913 88.787 161.27 12.232 12.247 33.412 
50 "T2" 72.772 133.20 48.154 12.486 23.920 5.4357 
51 "U2" 155.64 177.45 175.23 38.913 47.091 40.794 
52 "V2" 65.311 50.797 44.712 8.3779 6.8387 3.7119 
53 "W2" 30.304 29.389 28.630 2.3401 2.3804 1.9157 
54 "X2" 98.383 112.57 76.501 17.501 20.678 9.7225 
55 "Y2" 196.95 176.56 81.174 60.324 56.490 9.7029 
56 "Z2" 106.87 76.461 64.020 18.340 14.257 6.9452 
57 "2A2" 149.29 180.57 55.756 39.051 50.700 6.0515 
58 "2B2" 46.850 72.093 42.887 5.3134 8.7205 3.7883 
59 "2C2" 126.21 86.097 104.74 24.040 16.842 14.641 
60 "2D2" 68.443 138.05 59.668 10.963 22.720 8.1563 
61 "A3" 40.703 34.668 43.170 3.2215 2.8069 3.1344 
62 "B3" 140.80 177.61 130.47 35.703 49.122 24.276 
63 "C3" 71.422 72.467 144.63 9.6710 9.2674 28.141 
64 "D3" 157.83 159.05 109.87 39.368 42.329 16.693 
65 "E3" 74.511 78.412 148.91 9.8448 9.8037 29.501 
66 "F3" 172.35 192.98 167.60 50.040 60.997 38.371 
67 "G3" 72.505 72.322 146.66 9.8731 9.2375 28.216 
68 "H3" 132.85 167.63 50.020 31.926 43.409 5.2962 
69 "I3" 99.822 132.27 193.48 18.889 24.530 52.235 
70 "J3" 158.78 88.817 87.144 36.271 22.167 11.952 
71 "K3" 146.32 156.61 192.38 34.281 37.060 50.573 
72 "L3" 30.978 30.641 29.826 2.4511 2.5353 2.0398 
73 "M3" 146.27 153.30 150.57 34.120 37.136 30.510 
74 "N3" 144.16 70.919 46.534 28.309 16.461 3.7229 
75 "O3" 85.091 72.947 144.27 12.851 10.508 27.052 
76 "P3" 122.91 131.12 67.881 24.532 27.910 7.4170 
77 "Q3" 140.27 116.77 178.48 29.800 23.719 40.761 
78 "R3" 73.020 103.31 46.082 11.420 17.249 4.2060 
79 "S3" 148.58 74.828 46.145 30.098 17.923 3.6411 
80 "T3" 92.676 106.61 179.17 15.102 16.455 41.548 
81 "U3" 89.067 149.36 56.522 16.816 29.880 6.2892 
82 "V3" 104.27 103.98 177.68 19.054 17.886 40.635 
83 "W3" 122.27 64.970 44.965 21.160 13.146 3.6418 
84 "X3" 190.80 157.08 167.65 56.827 44.647 36.033 
85 "Y3" 55.033 94.759 44.077 7.3224 13.350 4.3645 
86 "Z3" 157.08 85.576 87.558 34.447 20.515 11.595 
87 "2A3" 79.250 88.578 159.52 10.795 11.448 32.464 
88 "2B3" 108.15 127.71 55.172 20.617 25.691 5.5795 
89 "2C3" 78.102 75.847 150.05 11.126 10.174 28.914 
90 "2D3" 202.83 194.20 199.16 68.724 66.102 56.410 
91 "A4" 105.09 86.729 157.14 19.671 15.554 33.919 
92 "B4" 99.696 102.26 43.923 17.501 19.753 3.8498 
93 "C4" 107.26 130.81 190.72 21.509 25.734 51.674 
94 "D4" 178.30 141.51 75.719 51.958 42.451 9.1213 
95 "E4" 86.201 111.97 176.39 14.112 17.806 42.697 
96 "F4" 192.41 193.92 143.50 61.487 65.884 27.427 
97 "G4" 161.20 95.317 155.94 38.420 23.239 29.457 
98 "H4" 74.863 77.945 149.59 9.8759 9.7311 29.126 
99 "I4" 207.61 208.23 184.16 75.793 79.718 46.695 
100 "J4" 70.931 101.90 131.71 10.595 15.480 24.653 
101 "K4" 147.01 94.545 162.80 32.187 21.331 32.814 
102 "L4" 81.586 103.83 104.84 13.777 17.753 16.663 
103 "M4" 141.06 69.848 45.247 27.339 16.027 3.5603 
104 "N4" 90.494 151.07 150.65 16.922 28.995 29.336 
105 "O4" 55.294 41.016 63.313 6.3066 4.7610 6.9921 
106 "P4" 111.84 140.47 103.22 22.390 29.210 15.592 
107 "Q4" 144.45 93.249 162.31 30.657 20.369 32.268 
108 "R4" 105.31 104.82 101.31 19.152 19.807 15.592 
109 "S4" 79.325 137.68 48.973 13.948 25.671 5.2122 
110 "T4" 84.189 150.82 120.01 14.991 27.898 19.745 
111 "U4" 81.413 52.379 93.432 11.486 7.6381 12.484 
112 "V4" 76.459 77.531 42.048 10.749 11.899 3.2945 
113 "W4" 211.28 212.44 213.00 77.699 80.782 67.995 
114 "X4" 125.79 102.06 67.469 24.430 21.610 7.1800 
115 "Y4" 36.736 36.340 46.306 3.2104 3.1999 4.2513 
116 "Z4" 83.114 150.29 61.891 14.450 27.763 8.5197 
117 "2A4" 117.71 90.574 160.37 21.679 16.235 32.574 
118 "2B4" 89.463 153.87 72.494 15.737 29.267 10.078 
119 "2C4" 42.498 47.832 65.570 3.9226 4.4418 7.5674 
120 "2D4" 115.91 156.34 101.73 24.022 34.375 15.022 
121 "A5" 100.43 57.576 43.875 16.920 10.945 3.6233 
122 "B5" 139.57 140.52 191.37 32.876 32.373 51.547 
123 "C5" 106.24 157.82 63.346 23.454 37.144 7.5202 
124 "D5" 120.63 119.68 128.56 24.762 25.266 23.702 
125 "E5" 144.32 70.530 44.643 29.192 16.958 3.5359 
126 "F5" 112.12 164.88 139.23 23.640 37.186 26.447 
127 "G5" 103.37 136.87 47.413 20.387 28.842 4.7028 
128 "H5" 36.251 41.780 35.395 3.3636 4.0809 2.6833 
129 "I5" 111.24 162.80 164.26 23.272 35.820 35.198 
130 "J5" 143.56 87.562 156.55 30.642 19.573 30.103 
131 "K5" 109.54 163.06 164.19 22.753 35.416 35.064 
132 "L5" 79.627 52.133 45.354 11.209 7.8786 3.5144 
133 "M5" 92.456 152.33 153.19 17.513 29.721 30.234 
134 "N5" 34.714 33.013 32.281 2.9935 2.9559 2.2837 
135 "O5" 166.35 175.94 163.99 44.139 49.035 35.423 
136 "P5" 89.669 79.549 47.144 14.200 13.959 3.6761 
137 "Q5" 191.24 182.85 188.48 59.021 56.831 48.262 
138 "R5" 51.675 70.899 41.770 6.3401 9.2262 3.4989 
139 "S5" 170.53 177.54 173.76 45.700 49.818 40.124 
140 "T5" 63.890 93.942 45.687 9.3142 14.437 4.0636 
141 "U5" 30.168 29.299 28.940 2.3535 2.3975 1.9290 
142 "V5" 133.08 133.14 122.05 27.766 28.925 20.091 
143 "W5" 36.054 32.923 33.276 3.0887 2.9300 2.3596 
144 "X5" 61.314 111.77 45.755 8.7239 16.803 5.0276 
145 "Y5" 203.39 209.40 208.06 70.161 75.882 63.247 
146 "Z5" 76.353 77.670 109.77 11.191 11.244 16.654 
147 "2A5" 193.86 202.18 186.73 62.394 68.771 47.096 
148 "2B5" 84.630 73.965 145.61 12.640 10.459 27.333 
149 "2C5" 68.392 129.05 45.336 11.160 21.761 5.5099 
150 "2D5" 210.46 210.49 195.89 77.413 80.592 53.936 
151 "A6" 156.79 90.614 148.03 37.703 22.453 27.499 
152 "B6" 88.481 111.82 178.46 14.943 18.301 44.058 
153 "C6" 167.90 108.82 66.983 44.282 30.956 7.9185 
154 "D6" 66.578 110.85 54.360 10.440 18.144 6.5076 
155 "E6" 148.31 87.735 154.80 32.892 20.486 29.274 
156 "F6" 93.611 155.13 115.73 17.819 31.263 19.184 
157 "G6" 40.190 39.280 58.763 3.7468 3.6058 6.3752 
158 "H6" 170.89 152.59 147.19 45.907 41.132 28.818 
159 "I6" 46.469 44.545 75.326 4.4472 4.1158 9.1204 
160 "J6" 102.48 151.18 180.03 20.388 31.549 44.358 
161 "K6" 30.872 30.164 29.516 2.3970 2.4515 1.9961 
162 "L6" 83.294 137.00 98.315 14.323 24.343 14.536 
163 "M6" 30.722 30.150 29.446 2.3623 2.4293 1.9541 
164 "N6" 163.74 151.67 194.83 41.190 36.767 50.714 
165 "O6" 199.83 203.65 49.970 62.357 69.847 6.3069 
166 "P6" 77.512 86.873 159.07 10.124 10.811 31.915 
167 "Q6" 200.99 194.31 190.45 67.127 65.762 49.352 
168 "R6" 165.39 100.99 154.68 39.128 23.959 27.822 
169 "S6" 69.496 98.026 61.986 10.413 15.222 6.7952 
170 "T6" 167.68 124.93 146.98 41.195 30.074 26.292 
171 "U6" 62.706 68.483 60.211 8.4099 9.5591 6.5834 
172 "V6" 174.63 108.06 166.14 43.942 26.976 32.439 
173 "W6" 138.60 174.02 106.27 33.397 44.263 15.513 
174 "X6" 192.12 161.59 197.05 56.629 45.672 50.137 
175 "Y6" 71.207 70.503 63.173 10.198 10.583 6.9283 
176 "Z6" 171.42 121.85 182.26 42.782 29.822 40.386 
177 "2A6" 193.77 197.98 207.14 61.567 65.013 61.274 
178 "2B6" 117.80 82.965 151.94 21.335 15.115 28.916 
179 "2C6" 36.305 39.517 34.462 3.2203 3.7212 2.6005 
180 "2D6" 152.48 145.44 148.89 35.799 34.854 29.422 
181 "A7" 93.637 153.35 73.710 19.123 33.078 10.667 
182 "B7" 83.277 73.755 144.52 12.915 10.831 28.225 
183 "C7" 206.85 206.70 197.33 77.518 80.587 57.622 
184 "D7" 77.454 73.349 146.72 11.348 10.154 28.703 
185 "E7" 70.809 132.64 47.023 12.442 24.254 5.6475 
186 "F7" 91.049 88.345 163.10 15.345 13.969 34.910 
187 "G7" 177.87 190.87 53.018 52.703 61.988 5.9513 
188 "H7" 75.960 87.720 159.98 9.9056 10.888 32.881 
189 "I7" 199.48 192.77 181.55 67.471 66.483 44.705 
190 "J7" 64.713 68.090 67.610 8.8426 9.6268 8.1730 
191 "K7" 193.08 175.48 139.54 61.925 56.855 24.968 
192 "L7" 75.430 87.876 159.79 9.6349 10.726 32.427 
193 "M7" 133.24 173.17 56.742 32.435 45.157 6.1480 
194 "N7" 148.49 75.098 46.216 30.427 18.146 3.6270 
195 "O7" 97.134 97.177 86.559 16.928 17.695 11.911 
196 "P7" 191.20 160.30 54.685 56.094 48.894 4.9467 
197 "Q7" 80.068 80.251 125.32 11.934 11.778 20.573 
198 "R7" 83.368 147.19 55.358 15.285 28.434 6.3346 
199 "S7" 37.747 44.719 36.907 3.5054 4.3615 2.7830 
200 "T7" 146.52 175.26 205.50 35.099 44.589 58.771 
201 "U7" 133.97 82.941 152.98 26.155 17.005 28.079 
202 "V7" 63.182 103.22 97.125 8.9086 14.924 14.071 
203 "W7" 144.22 147.07 76.384 30.611 33.536 8.6858 
204 "X7" 212.78 213.19 211.89 79.113 81.784 66.503 
205 "Y7" 77.896 86.298 158.37 10.240 10.764 31.229 
206 "Z7" 71.313 133.52 47.389 11.976 23.218 5.4228 
207 "2A7" 75.926 78.650 151.98 9.9976 9.7574 28.929 
208 "2B7" 118.08 168.98 98.781 25.572 39.297 14.262 
209 "2C7" 207.34 198.34 43.623 66.257 69.908 5.8960 
210 "2D7" 92.639 108.26 179.66 14.893 16.603 41.626 
211 "A8" 69.904 137.36 58.325 12.100 24.359 8.4071 
212 "B8" 167.09 144.55 49.599 42.436 39.900 4.7260 
213 "C8" 111.10 78.672 121.83 20.574 15.216 20.136 
214 "D8" 74.340 141.34 56.829 12.701 25.255 8.1803 
215 "E8" 104.13 74.055 141.65 18.324 13.039 26.409 
216 "F8" 90.075 154.61 90.911 16.724 30.035 13.212 
217 "G8" 36.341 33.896 36.868 3.3200 3.1831 3.0291 
218 "H8" 101.65 159.66 134.07 20.304 33.570 24.443 
219 "I8" 34.216 33.499 37.712 2.9169 2.9009 3.0168 
220 "J8" 174.41 165.56 173.38 48.038 46.099 39.891 
221 "K8" 46.252 66.300 42.397 5.2241 8.0427 3.5985 
222 "L8" 152.69 184.12 182.69 38.619 50.368 44.407 
223 "M8" 30.240 29.863 28.939 2.3428 2.3959 1.9273 
224 "N8" 35.593 35.467 34.190 3.1956 3.3116 2.6415 
225 "O8" 71.728 71.553 70.937 10.494 10.847 8.8081 
226 "P8" 115.92 116.10 114.68 22.233 23.005 18.548 
227 "Q8" 159.85 160.38 159.13 39.317 40.778 33.056 
228 "R8" 196.60 197.21 197.12 63.147 65.480 53.862 
229 "S8" 137.57 112.53 140.33 28.252 23.514 24.400 
230 "T8" 80.940 142.13 50.952 14.520 26.909 5.4756 
231 "U8" 99.365 133.93 196.43 18.057 24.054 51.817 
232 "V8" 30.957 30.566 29.813 2.3402 2.3911 1.9209 
233 "W8" 212.09 210.69 210.55 77.838 79.255 64.883 
234 "X8" 90.920 71.799 46.751 14.232 12.342 3.5677 
235 "Y8" 137.72 177.30 175.40 31.451 43.594 39.472 
236 "Z8" 39.524 49.911 38.685 3.8429 5.0881 3.0661 
237 "2A8" 130.39 176.13 127.05 27.844 41.491 21.140 
238 "2B8" 31.904 31.437 30.690 2.4921 2.5648 2.0613 
239 "2C8" 149.77 158.18 196.00 34.635 36.777 50.964 
240 "2D8" 30.719 29.824 29.600 2.3436 2.3905 1.9440 
241 "A9" 160.64 188.72 135.75 46.811 59.109 25.406 
242 "B9" 151.09 113.48 161.82 35.695 26.905 33.928 
243 "C9" 56.378 101.12 44.028 8.0578 15.313 4.8058 
244 "D9" 200.86 192.61 183.06 70.562 68.540 46.575 
245 "E9" 77.639 89.149 161.20 10.633 11.656 33.787 
246 "F9" 183.43 148.52 132.23 54.113 43.360 23.933 
247 "G9" 53.868 83.869 77.703 7.1200 11.358 10.328 
248 "H9" 144.68 93.693 163.06 31.237 20.786 32.756 
249 "I9" 80.625 147.05 117.46 14.469 27.174 19.553 
250 "J9" 82.612 53.093 45.342 11.813 8.1727 3.4750 
251 "K9" 179.05 178.11 205.03 51.613 51.265 59.093 
252 "L9" 68.256 128.21 45.397 11.232 21.889 5.3482 
253 "M9" 30.122 29.559 28.786 2.3389 2.3932 1.9205 
254 "N9" 44.132 44.030 43.113 4.6543 4.8363 3.9004 
255 "O9" 77.603 77.496 77.212 11.973 12.444 10.082 
256 "P9" 123.38 123.35 123.35 24.548 25.410 20.720 
257 "Q9" 167.61 168.12 167.11 43.270 44.842 36.215 
258 "R9" 202.61 204.17 205.53 68.113 71.034 59.864 
259 "S9" 152.34 81.269 59.657 31.468 18.903 5.4734 
260 "T9" 36.525 39.233 37.120 3.2297 3.6435 2.9170 
261 "U9" 147.79 112.59 105.57 31.779 25.042 15.321 
262 "V9" 128.85 175.42 85.449 30.098 43.673 10.856 
263 "W9" 202.12 182.11 203.04 65.360 57.273 55.175 
264 "X9" 58.841 111.22 46.014 7.8261 15.682 5.0934 
265 "Y9" 150.27 74.574 46.780 30.151 17.603 3.5424 
266 "Z9" 91.373 72.814 142.15 14.169 10.872 25.545 
267 "2A9" 178.42 178.87 165.68 49.740 51.961 35.295 
268 "2B9" 110.21 82.066 150.83 19.293 14.167 28.533 
269 "2C9" 115.57 141.00 82.227 23.305 29.469 10.465 
270 "2D9" 120.44 87.308 156.62 22.420 16.254 30.792 
271 "A10" 54.278 98.104 59.100 7.4766 14.316 6.7672 
272 "B10" 141.49 142.92 50.130 30.693 34.185 4.8132 
273 "C10" 69.545 135.98 93.417 11.568 23.235 13.773 
274 "D10" 30.772 30.009 29.471 2.4307 2.4999 2.0171 
275 "E10" 140.52 89.479 159.03 30.140 19.949 31.751 
276 "F10" 88.149 135.62 165.23 15.810 25.353 37.521 
277 "G10" 30.508 30.075 29.389 2.4272 2.4936 1.9887 
278 "H10" 75.794 144.13 86.030 12.549 25.096 11.562 
279 "I10" 29.881 29.286 28.915 2.3402 2.3788 1.9223 
280 "J10" 78.427 139.08 135.09 13.387 24.235 23.958 
281 "K10" 127.69 103.24 52.122 25.478 22.853 4.3681 
282 "L10" 47.518 38.484 37.887 5.0366 4.2550 2.8902 
283 "M10" 30.202 29.466 28.978 2.3374 2.3915 1.9194 
284 "N10" 50.671 50.438 49.901 5.8942 6.1054 4.9143 
285 "O10" 84.087 84.218 84.130 13.462 14.013 11.428 
286 "P10" 130.92 131.27 131.19 27.055 28.014 23.007 
287 "Q10" 174.24 174.94 173.31 47.406 49.169 39.386 
288 "R10" 208.46 209.75 212.17 73.974 77.043 65.729 
289 "S10" 61.440 61.759 68.112 7.8358 8.0794 7.9176 
290 "T10" 189.59 154.63 195.61 54.395 42.563 48.165 
291 "U10" 70.065 139.76 58.155 11.113 22.841 7.7084 
292 "V10" 34.382 38.877 37.374 2.9394 3.4387 2.9247 
293 "W10" 81.185 148.91 88.683 13.284 25.973 11.867 
294 "X10" 31.337 30.706 30.647 2.4768 2.5120 2.1182 
295 "Y10" 132.10 124.54 122.36 27.102 26.481 19.829 
296 "Z10" 128.86 77.259 44.848 23.978 16.698 3.6586 
297 "2A10" 121.07 144.71 145.24 24.659 30.178 27.108 
298 "2B10" 91.404 54.498 76.524 13.618 8.1445 8.4106 
299 "2C10" 122.45 129.19 129.52 24.412 26.496 22.533 
300 "2D10" 52.091 43.712 85.349 5.2897 4.2252 10.803 
301 "A11" 95.121 56.945 109.13 15.662 9.9371 16.757 
302 "B11" 49.247 84.978 41.595 6.3528 11.756 4.1276 
303 "C11" 201.38 188.28 201.57 70.247 65.054 58.834 
304 "D11" 165.99 106.71 48.883 42.904 30.283 4.3741 
305 "E11" 142.45 151.87 140.77 33.675 37.292 27.259 
306 "F11" 59.895 43.373 70.686 7.3260 5.3398 8.4321 
307 "G11" 185.60 179.80 175.52 56.748 56.026 41.441 
308 "H11" 62.810 62.001 39.464 8.1585 8.7147 3.0001 
309 "I11" 182.38 181.99 177.01 54.512 56.195 42.466 
310 "J11" 44.613 62.579 56.523 4.9736 7.2275 6.1574 
311 "K11" 177.26 171.26 154.02 50.413 50.352 29.675 
312 "L11" 81.706 58.921 119.57 11.783 8.3671 18.993 
313 "M11" 30.648 29.769 29.464 2.4004 2.4632 1.9865 
314 "N11" 56.534 56.324 55.689 7.0502 7.2979 5.9348 
315 "O11" 89.911 89.936 88.980 15.157 15.663 12.643 
316 "P11" 140.77 141.41 140.88 30.809 31.935 26.037 
317 "Q11" 179.84 180.21 178.58 51.029 52.827 42.179 
318 "R11" 212.60 213.84 215.53 78.892 82.077 69.152 
319 "S11" 66.493 66.184 65.558 9.0391 9.3614 7.5795 
320 "T11" 187.32 160.61 146.99 54.688 46.067 27.270 
321 "U11" 59.842 44.929 41.517 7.0672 5.5203 3.1542 
322 "V11" 100.71 151.70 177.40 19.018 30.251 40.808 
323 "W11" 32.433 32.983 31.555 2.6438 2.7813 2.1741 
324 "X11" 103.41 161.56 150.03 20.294 33.254 28.954 
325 "Y11" 49.930 46.756 84.028 4.7917 4.3367 10.461 
326 "Z11" 157.24 187.57 185.20 39.678 51.335 44.730 
327 "2A11" 69.840 130.51 46.639 11.397 22.075 5.4606 
328 "2B11" 164.73 190.77 189.92 43.396 54.386 47.692 
329 "2C11" 67.660 57.565 50.639 9.0264 8.0855 4.5632 
330 "2D11" 146.88 73.255 46.894 29.263 17.239 3.6542 
331 "A12" 149.18 183.06 84.464 42.435 55.238 11.960 
332 "B12" 72.446 71.794 146.17 10.244 9.5241 28.550 
333 "C12" 111.58 163.80 82.344 25.557 39.490 11.397 
334 "D12" 67.115 62.023 67.669 9.5983 9.1448 8.3283 
335 "E12" 202.25 206.59 144.16 71.285 77.444 27.463 
336 "F12" 142.52 142.52 149.46 32.592 33.399 30.058 
337 "G12" 52.218 46.843 96.005 5.1430 4.3541 13.182 
338 "H12" 95.301 157.62 128.66 18.517 32.087 22.562 
339 "I12" 58.804 42.199 45.333 6.9977 5.1440 3.8014 
340 "J12" 201.67 207.01 112.57 69.246 76.042 17.844 
341 "K12" 76.878 56.433 113.86 10.642 7.6407 17.593 
342 "L12" 110.43 164.87 121.89 21.927 35.477 19.681 
343 "M12" 31.073 30.502 29.828 2.4287 2.4921 1.9949 
344 "N12" 60.863 60.999 60.221 7.9937 8.3172 6.7360 
345 "O12" 97.436 97.414 96.425 17.120 17.761 14.285 
346 "P12" 146.96 147.76 147.68 33.242 34.486 28.221 
347 "Q12" 186.04 186.49 184.52 55.136 57.000 45.303 
348 "R12" 217.03 217.69 217.80 84.047 87.070 71.496 
349 "S12" 173.81 166.67 164.48 46.799 45.618 34.284 
350 "T12" 61.998 59.133 126.43 6.6921 6.0185 19.773 
351 "U12" 133.08 178.53 107.01 31.583 45.365 15.646 
352 "V12" 159.59 92.307 67.569 35.975 22.808 7.0470 
353 "W12" 92.823 93.091 102.67 15.632 16.004 15.333 
354 "X12" 153.31 79.910 48.385 32.188 19.569 3.7849 
355 "Y12" 76.169 77.765 152.48 9.9981 9.6287 28.171 
356 "Z12" 80.867 145.82 55.209 14.429 27.348 6.4901 
357 "2A12" 88.726 84.091 155.13 13.822 12.446 29.936 
358 "2B12" 201.37 208.14 195.53 68.261 74.431 52.067 
359 "2C12" 32.004 31.705 30.813 2.4685 2.5621 2.0287 
360 "2D12" 135.53 145.08 187.78 28.798 30.974 45.549 
361 "A13" 86.415 69.301 138.07 14.129 10.884 26.286 
362 "B13" 104.58 136.42 46.559 21.280 29.662 4.6515 
363 "C13" 147.82 79.114 100.32 32.064 17.966 13.604 
364 "D13" 75.334 85.157 157.26 9.9611 10.733 32.277 
365 "E13" 178.81 179.96 148.24 51.845 54.927 28.181 
366 "F13" 55.482 72.327 100.16 6.3441 8.5421 15.068 
367 "G13" 200.09 199.75 184.43 68.699 71.452 46.387 
368 "H13" 76.688 84.710 151.41 10.374 10.902 29.169 
369 "I13" 129.73 107.35 52.022 26.203 23.997 4.3858 
370 "J13" 119.03 160.66 198.42 25.753 36.554 54.373 
371 "K13" 56.473 50.032 106.16 5.9068 4.9157 15.287 
372 "L13" 153.18 106.56 46.936 35.348 27.270 4.1933 
373 "M13" 32.264 31.978 31.289 2.6154 2.7053 2.1626 
374 "N13" 66.470 66.520 66.246 9.3637 9.6843 7.8391 
375 "O13" 105.28 105.86 104.76 19.359 20.106 16.147 
376 "P13" 153.75 154.63 154.12 36.624 37.957 30.671 
377 "Q13" 192.03 192.25 191.27 59.859 61.861 49.702 
378 "R13" 221.68 221.89 221.96 89.957 93.025 75.604 
379 "S13" 104.20 75.856 145.33 17.613 12.665 26.369 
380 "T13" 121.87 124.18 72.370 22.969 25.114 7.7873 
381 "U13" 91.392 55.886 72.021 13.623 8.3610 7.6135 
382 "V13" 193.01 176.53 161.70 59.661 54.433 33.140 
383 "W13" 97.047 61.496 44.638 15.045 10.609 3.4373 
384 "X13" 124.18 171.27 172.48 26.676 39.190 37.659 
385 "Y13" 100.95 103.55 45.932 16.770 18.831 3.7976 
386 "Z13" 98.719 76.722 108.03 16.243 13.004 15.620 
387 "2A13" 193.99 204.68 205.71 62.079 69.145 59.254 
388 "2B13" 77.619 94.368 167.50 9.8300 11.508 34.315 
389 "2C13" 91.512 53.191 50.701 13.378 8.4024 4.1065 
390 "2D13" 76.609 104.98 135.45 11.706 16.228 24.708 
391 "A14" 129.84 79.131 147.61 27.260 17.709 28.446 
392 "B14" 74.731 86.884 158.53 10.007 11.116 33.309 
393 "C14" 178.45 194.65 198.02 55.170 63.826 56.969 
394 "D14" 122.80 65.789 71.805 22.474 12.791 7.8220 
395 "E14" 99.529 101.15 66.691 17.833 19.340 7.6068 
396 "F14" 133.73 68.160 43.803 25.508 15.387 3.5019 
397 "G14" 130.31 174.28 137.87 28.674 42.244 25.294 
398 "H14" 110.49 77.413 145.63 20.013 14.167 27.201 
399 "I14" 30.999 29.764 29.587 2.4079 2.4331 1.9867 
400 "J14" 120.14 114.13 178.99 23.527 21.066 41.374 
401 "K14" 128.29 64.544 74.117 23.203 12.509 8.0121 
402 "L14" 176.70 157.34 183.40 48.486 42.511 43.112 
403 "M14" 59.777 105.00 45.141 8.6031 15.926 4.6200 
404 "N14" 182.00 181.11 190.30 53.107 53.884 48.977 
405 "O14" 42.651 40.749 62.042 3.9836 3.7404 6.5852 
406 "P14" 151.32 150.31 182.91 35.517 35.068 43.001 
407 "Q14" 162.51 94.932 125.82 37.782 22.314 19.042 
408 "R14" 99.745 94.301 93.467 17.467 17.105 13.104 
409 "S14" 107.25 159.78 58.090 22.370 35.508 5.9931 
410 "T14" 128.01 72.369 117.84 23.886 13.985 16.868 
411 "U14" 107.76 101.18 90.766 19.591 19.252 12.172 
412 "V14" 204.14 190.16 48.644 63.345 63.812 5.6645 
413 "W14" 82.597 65.626 44.970 12.028 10.481 3.3856 
414 "X14" 166.39 166.20 175.82 42.635 43.420 39.912 
415 "Y14" 100.69 152.17 51.384 19.856 32.192 5.1431 
416 "Z14" 91.650 100.20 90.746 15.570 17.641 12.711 
417 "2A14" 143.62 91.243 162.04 29.733 19.495 31.105 
418 "2B14" 214.71 215.34 214.31 81.209 84.285 67.959 
419 "2C14" 101.32 87.875 161.74 16.972 13.897 32.504 
420 "2D14" 105.18 138.75 68.497 20.262 27.906 7.7177 
421 "A15" 124.84 68.758 114.78 24.922 14.319 17.652 
422 "B15" 99.929 150.22 167.53 20.394 32.266 39.177 
423 "C15" 121.25 165.78 57.133 28.847 42.042 6.3345 
424 "D15" 129.49 121.04 130.58 27.579 26.553 23.681 
425 "E15" 161.27 95.254 123.97 38.874 23.290 19.357 
426 "F15" 148.20 174.03 142.22 36.703 46.352 27.027 
427 "G15" 150.41 98.923 167.42 34.061 22.803 34.531 
428 "H15" 75.180 91.615 158.04 10.113 11.921 31.879 
429 "I15" 196.22 179.25 172.32 64.423 58.008 39.281 
430 "J15" 66.558 62.105 60.696 9.4542 9.1717 6.7120 
431 "K15" 174.25 177.65 112.40 48.073 52.062 16.154 
432 "L15" 116.33 112.29 162.02 22.225 20.657 33.169 
433 "M15" 133.68 171.46 73.038 32.410 43.840 8.6168 
434 "N15" 102.47 146.49 198.15 19.932 29.141 53.896 
435 "O15" 64.715 46.574 43.032 8.2354 6.1612 3.2448 
436 "P15" 105.91 159.08 164.78 21.186 33.689 34.860 
437 "Q15" 34.379 33.754 36.003 2.8839 2.9372 2.7235 
438 "R15" 102.62 61.271 119.89 16.647 10.677 18.389 
439 "S15" 159.62 86.224 48.021 35.874 22.454 3.7685 
440 "T15" 95.611 158.57 127.45 18.024 31.495 21.231 
441 "U15" 133.03 87.140 157.87 26.027 17.635 30.172 
442 "V15" 48.894 77.368 43.484 5.7623 9.6302 3.8733 
443 "W15" 182.54 191.20 178.40 53.522 58.991 41.376 
444 "X15" 126.00 95.308 166.74 23.991 17.693 34.060 
